X: 1
T: Wideford Hill
Z: Susan Kingston
S: https://thesession.org/tunes/16351#setting30974
R: waltz
M: 3/4
L: 1/8
K: Dmin
d2 e2 f2 | a2 g2 f2 |  e2 d2 e2 | A6 | d3 d e2 | e2 f/2e/2d/2e/2 c2 | d6 | ag fe fe |
d3 f B2 |   A4 F2 | E3 F "Fine"D2 ||  f2 f2 f2 | f2 a2 e2 | fB dB A2 | A2 A2 A2 | ^G4 ec |
=B2 "D.C. al Fine"A4 |]
